neru-light-classic/32x32/apps/citra.svg

<?xml version="1.0" encoding="UTF-8" standalone="no"?>
<svg
   xmlns:dc="http://purl.org/dc/elements/1.1/"
   xmlns:cc="http://creativecommons.org/ns#"
   xmlns:rdf="http://www.w3.org/1999/02/22-rdf-syntax-ns#"
   xmlns:svg="http://www.w3.org/2000/svg"
   xmlns="http://www.w3.org/2000/svg"
   xmlns:sodipodi="http://sodipodi.sourceforge.net/DTD/sodipodi-0.dtd"
   xmlns:inkscape="http://www.inkscape.org/namespaces/inkscape"
   height="32"
   viewBox="0 0 32 32"
   width="32"
   version="1.1"
   id="svg28"
   sodipodi:docname="citra.svg"
   inkscape:version="0.92.1 r">
  <metadata
     id="metadata34">
    <rdf:RDF>
      <cc:Work
         rdf:about="">
        <dc:format>image/svg+xml</dc:format>
        <dc:type
           rdf:resource="http://purl.org/dc/dcmitype/StillImage" />
      </cc:Work>
    </rdf:RDF>
  </metadata>
  <defs
     id="defs32" />
  <sodipodi:namedview
     pagecolor="#ffffff"
     bordercolor="#666666"
     borderopacity="1"
     objecttolerance="10"
     gridtolerance="10"
     guidetolerance="10"
     inkscape:pageopacity="0"
     inkscape:pageshadow="2"
     inkscape:window-width="1680"
     inkscape:window-height="963"
     id="namedview30"
     showgrid="false"
     inkscape:zoom="5.2149125"
     inkscape:cx="-18.891344"
     inkscape:cy="21.202495"
     inkscape:window-x="0"
     inkscape:window-y="0"
     inkscape:window-maximized="1"
     inkscape:current-layer="svg28" />
  <rect
     style="opacity:1;fill:#ff9426;fill-opacity:1;fill-rule:evenodd;stroke:none;stroke-width:1.03534329;stroke-linecap:round;stroke-linejoin:bevel;stroke-miterlimit:4;stroke-dasharray:none;stroke-dashoffset:0;stroke-opacity:1"
     id="rect4497-3"
     width="28.203388"
     height="28.203388"
     x="1.8983059"
     y="1.8983059"
     ry="5.575182" />
  <g
     id="g4527">
    <path
       id="path4"
       style="fill:#ff9426;fill-opacity:1"
       d="M 16,2 A 14,14 0 0 0 2,16 14,14 0 0 0 16,30 14,14 0 0 0 30,16 14,14 0 0 0 16,2 Z" />
    <circle
       id="circle8"
       r="12"
       cy="16"
       cx="16"
       style="opacity:1;fill:#ffffff;fill-opacity:1;" />
    <path
       id="path10"
       d="M 15.971936,6.0001008 C 14.724601,5.9941508 13.561459,6.2456129 13.000023,6.519641 13.000779,6.523681 12.999221,6.4959 13,6.5 13.095256,6.6968616 16,14 16,14 L 19,6.5 C 18.40457,6.2261466 17.218075,6.0060493 15.971923,6.0001019 Z"
       style="fill:#d2e015;fill-opacity:1;" />
    <path
       id="path12"
       style="fill:#c74a30;fill-opacity:1;"
       d="m 15.971936,25.999895 c -1.247335,0.006 -2.410477,-0.245512 -2.971913,-0.51954 7.56e-4,-0.004 -8.02e-4,0.02374 -2.3e-5,0.01964 0.09526,-0.196861 3,-7.5 3,-7.5 l 3,7.5 c -0.59543,0.273854 -1.781925,0.493951 -3.028077,0.499898 z" />
    <path
       id="path14"
       style="fill:#ff769d;fill-opacity:1;"
       d="m 25.999785,15.972047 c 0.006,-1.247335 -0.245512,-2.410477 -0.51954,-2.971913 -0.004,7.56e-4 0.02374,-8.02e-4 0.01964,-2.3e-5 -0.196862,0.09526 -7.5,3 -7.5,3 l 7.5,3 c 0.273853,-0.59543 0.493951,-1.781925 0.499898,-3.028077 z" />
    <path
       id="path16"
       d="m 5.999991,15.972047 c -0.006,-1.247335 0.245512,-2.410477 0.51954,-2.971913 0.004,7.56e-4 -0.02374,-8.02e-4 -0.01964,-2.3e-5 0.196861,0.09526 7.5,3 7.5,3 l -7.5,3 C 6.226037,18.404681 6.00594,17.218186 5.999993,15.972034 Z"
       style="fill:#f9a726;fill-opacity:1;" />
    <path
       id="path18"
       style="fill:#89dc3c;fill-opacity:1;"
       d="M 23.051118,8.9092386 C 22.173327,8.0230323 21.17305,7.3783772 20.582288,7.1751492 c -0.0023,0.00339 0.01622,-0.017355 0.01387,-0.013905 -0.07185,0.2065583 -3.18198,7.4246214 -3.18198,7.4246214 l 7.424621,-3.181981 C 24.611412,10.789209 23.928065,9.7945982 23.051108,8.9092302 Z" />
    <path
       id="path20"
       d="m 8.9091282,23.051229 c -0.8862417,-0.877757 -1.5308614,-1.878068 -1.7340896,-2.46883 0.00336,-0.0023 -0.017354,0.01622 -0.013904,0.01387 0.2065607,-0.07184 7.4246212,-3.181981 7.4246212,-3.181981 l -3.181981,7.424622 C 10.789099,24.611522 9.7944881,23.928175 8.9091204,23.051218 Z"
       style="fill:#dc6e33;fill-opacity:1;" />
    <path
       id="path22"
       d="m 23.090648,23.051229 c 0.886206,-0.877791 1.530861,-1.878068 1.734089,-2.46883 -0.0034,-0.0023 0.01736,0.01622 0.01391,0.01387 -0.206559,-0.07185 -7.424621,-3.18198 -7.424621,-3.18198 l 3.18198,7.424621 c 0.614676,-0.227389 1.609287,-0.910736 2.494655,-1.787693 z"
       style="fill:#dd4f3c;fill-opacity:1;" />
    <path
       id="path24"
       style="fill:#f8e12e;fill-opacity:1;"
       d="M 8.9486577,8.9092392 C 9.8264141,8.0229975 10.826726,7.3783778 11.417488,7.1751496 c 0.0023,0.00336 -0.01622,-0.017354 -0.01387,-0.013904 0.07184,0.2065607 3.18198,7.4246212 3.18198,7.4246212 L 7.1609758,11.403886 C 7.3883644,10.78921 8.071711,9.7945991 8.9486683,8.9092314 Z" />
  </g>
</svg>

<svg xmlns="http://www.w3.org/2000/svg" height="32" width="32"><rect width="28.203" height="28.203" x="1.898" y="1.898" ry="5.575" fill="#ff9426" fill-rule="evenodd"/><path d="M16 2A14 14 0 0 0 2 16a14 14 0 0 0 14 14 14 14 0 0 0 14-14A14 14 0 0 0 16 2z" fill="#ff9426"/><circle r="12" cy="16" cx="16" fill="#fff"/><path d="M15.972 6c-1.247-.006-2.41.246-2.972.52V6.5c.095.197 3 7.5 3 7.5l3-7.5c-.595-.274-1.782-.494-3.028-.5z" fill="#d2e015"/><path d="M15.972 26c-1.247.006-2.41-.246-2.972-.52v.02c.095-.197 3-7.5 3-7.5l3 7.5c-.595.274-1.782.494-3.028.5z" fill="#c74a30"/><path d="M26 15.972c.006-1.247-.246-2.41-.52-2.972h.02c-.197.095-7.5 3-7.5 3l7.5 3c.274-.595.494-1.782.5-3.028z" fill="#ff769d"/><path d="M6 15.972c-.006-1.247.246-2.41.52-2.972H6.5c.197.095 7.5 3 7.5 3l-7.5 3c-.274-.595-.494-1.782-.5-3.028z" fill="#f9a726"/><path d="M23.051 8.91c-.878-.887-1.878-1.532-2.469-1.735-.002.004.017-.017.014-.014-.072.207-3.182 7.425-3.182 7.425l7.425-3.182c-.228-.615-.91-1.61-1.788-2.495z" fill="#89dc3c"/><path d="M8.91 23.051c-.887-.878-1.532-1.878-1.735-2.469l-.014.014c.207-.072 7.425-3.182 7.425-3.182l-3.182 7.425c-.615-.227-1.61-.91-2.495-1.788z" fill="#dc6e33"/><path d="M23.09 23.051c.887-.878 1.532-1.878 1.735-2.469-.004-.002.017.017.014.014-.207-.072-7.425-3.182-7.425-3.182l3.182 7.425c.615-.227 1.61-.91 2.495-1.788z" fill="#dd4f3c"/><path d="M8.949 8.91c.877-.887 1.878-1.532 2.468-1.735l-.013-.014c.071.207 3.182 7.425 3.182 7.425L7.16 11.404c.227-.615.91-1.61 1.788-2.495z" fill="#f8e12e"/></svg>
